X:0284
M:2/4
L:1/16
Q:1/4=104
P:ABA % Aird uses a da capo
K:G
P:A
gfga b2g2|dedc {c}B2AG|G2G2 AGAB|c2B2 B2A2|
gfga b2g2|d2dc {c}B2AG|D2G2 Bedc|B2G2 G4 :|
P:B

